svgs/sharp-solid/h4.svg

<svg xmlns="http://www.w3.org/2000/svg" viewBox="0 0 640 512"><!--! Font Awesome Pro 6.4.0 by @fontawesome - https://fontawesome.com License - https://fontawesome.com/license (Commercial License) Copyright 2023 Fonticons, Inc. --><path d="M64 64V96 224H256V96 64h64V96 256 416v32H256V416 288H64V416v32H0V416 256 96 64H64zm576 0V96 416v32H576V416 320H416 377.6l6.9-37.8L424.5 64h65.1L454.4 256H576V96 64h64z"/></svg>

<svg xmlns="http://www.w3.org/2000/svg" viewBox="0 0 640 512"><!--! Font Awesome Pro 6.6.0 by @fontawesome - https://fontawesome.com License - https://fontawesome.com/license (Commercial License) Copyright 2024 Fonticons, Inc. --><path d="M64 64l0 32 0 128 192 0 0-128 0-32 64 0 0 32 0 160 0 160 0 32-64 0 0-32 0-128L64 288l0 128 0 32L0 448l0-32L0 256 0 96 0 64l64 0zm576 0l0 32 0 320 0 32-64 0 0-32 0-96-160 0-38.4 0 6.9-37.8L424.5 64l65.1 0L454.4 256 576 256l0-160 0-32 64 0z"/></svg>
